X: 112
T: The Trip To Sligo
M: 6/8
L: 1/8
R: jig
K:Emin
"Em"E2e BGE |"D" D2d AFD | "Em"E2e BGF | GFE e2f |
"Em"gfe "G"dcB |"D" ABG FED |"Em" EFG "Am(6)"ABc |"G" BGF "Em"E3 :|
|: "Em"eBe gfe |"D" dAd fed |"Em" eBe gfe |"D" faf "Em"gfe |
"D"faf "Em"gfe |"G" dcB "D"AFD |"Em" EFG "Am(6)" ABc |"G" BGF"Em" E3 :|


